X: 24204
T: Lord MacDonald
R: reel
M: 4/4
K: Amixolydian
c|Aeef ecac|ccac fBBc|Aeef ecac|BcdB cAAe:|
AAcA BAcA|AAcA BGGe|AAcA BAcA|efed cAAe|
AAcA BAcA|AAcA BGGa|edcB c2 BA|GAAB cAAe||

